X:1916
T:Bourrée des Monédières
R:Bourrée à trois temps
A:Massif Central
O:France
M:3/4
L:1/4
Q:1/4=210
K:F
C|F/2E/2FG|AGc|c/2B/2cd|c2C|
F/2E/2FG|AGc|c/2B/2cd|c2c|
d/2c/2BA|GAB|A/2G/2FG|AFc|
d/2c/2BA|GAB|A/2G/2FE|F2C|F3||


